assets/img/braze_icons/info-hexagon.svg

<svg fill="none" height="24" viewBox="0 0 24 24" width="24" xmlns="http://www.w3.org/2000/svg"><path clip-rule="evenodd" d="m11.5971 1.18505c.2658-.05467.54-.05467.8058 0 .3073.06319.5819.21702.8003.33931l.0595.03325 7.4 4.11111.0631.03487c.2311.12731.5218.28738.7449.52956.193.20938.339.45754.4283.7279.1033.3127.1021.64448.1012.90835l-.0002.07213v8.11707l.0002.0722c.0009.2638.0021.5956-.1012.9083-.0893.2704-.2353.5185-.4283.7279-.2231.2422-.5137.4022-.7448.5296l-.0632.0348-7.4 4.1112-.0595.0332c-.2184.1223-.493.2761-.8003.3393-.2658.0547-.54.0547-.8058 0-.3073-.0632-.5819-.217-.8003-.3393l-.0595-.0332-7.39997-4.1112-.06313-.0348c-.23113-.1273-.52177-.2874-.74493-.5296-.19295-.2094-.33897-.4575-.4283-.7279-.10332-.3127-.10211-.6445-.10115-.9083l.00018-.0722v-8.11707l-.00018-.07213c-.00096-.26387-.00217-.59565.10115-.90835.08933-.27036.23535-.51852.4283-.7279.22317-.24218.51379-.40225.74492-.52956l.06314-.03487 7.39997-4.11111.0595-.03325c.2184-.12229.493-.27612.8003-.33931zm.4029 9.81495c.5523 0 1 .4477 1 1v4c0 .5523-.4477 1-1 1s-1-.4477-1-1v-4c0-.5523.4477-1 1-1zm0-4c-.5523 0-1 .44772-1 1s.4477 1 1 1h.01c.5523 0 1-.44772 1-1s-.4477-1-1-1z" fill="#801ed7" fill-rule="evenodd"/></svg>

<svg width="24" height="24" viewBox="0 0 24 24" fill="none" xmlns="http://www.w3.org/2000/svg">
<path fill-rule="evenodd" clip-rule="evenodd" d="M11.5971 1.18505C11.8629 1.13038 12.1371 1.13038 12.4029 1.18505C12.7102 1.24824 12.9848 1.40207 13.2032 1.52436L13.2627 1.55761L20.6627 5.66872L20.7258 5.70359C20.9569 5.8309 21.2476 5.99097 21.4707 6.23315C21.6637 6.44253 21.8097 6.69069 21.899 6.96105C22.0023 7.27375 22.0011 7.60553 22.0002 7.8694L22 7.94153V16.0586L22.0002 16.1308C22.0011 16.3946 22.0023 16.7264 21.899 17.0391C21.8097 17.3095 21.6637 17.5576 21.4707 17.767C21.2476 18.0092 20.957 18.1692 20.7259 18.2966L20.6627 18.3314L13.2627 22.4426L13.2032 22.4758C12.9848 22.5981 12.7102 22.7519 12.4029 22.8151C12.1371 22.8698 11.8629 22.8698 11.5971 22.8151C11.2898 22.7519 11.0152 22.5981 10.7968 22.4758L10.7373 22.4426L3.33733 18.3314L3.2742 18.2966C3.04307 18.1693 2.75243 18.0092 2.52927 17.767C2.33632 17.5576 2.1903 17.3095 2.10097 17.0391C1.99765 16.7264 1.99886 16.3946 1.99982 16.1308L2 16.0586V7.94153L1.99982 7.8694C1.99886 7.60553 1.99765 7.27375 2.10097 6.96105C2.1903 6.69069 2.33632 6.44253 2.52927 6.23315C2.75244 5.99097 3.04306 5.8309 3.27419 5.70359L3.33733 5.66872L10.7373 1.55761L10.7968 1.52436C11.0152 1.40207 11.2898 1.24824 11.5971 1.18505ZM12 11C12.5523 11 13 11.4477 13 12V16C13 16.5523 12.5523 17 12 17C11.4477 17 11 16.5523 11 16V12C11 11.4477 11.4477 11 12 11ZM12 7C11.4477 7 11 7.44772 11 8C11 8.55228 11.4477 9 12 9H12.01C12.5623 9 13.01 8.55228 13.01 8C13.01 7.44772 12.5623 7 12.01 7H12Z" fill="#801ED7"/>
</svg>
